icon-themes/sifr_svg/cmd/lc_charfontname.svg

<svg viewBox="0 0 24 24" xmlns="http://www.w3.org/2000/svg"><path d="m7 4v3h8c1.104569 0 2 .8954305 2 2v1h-8.5c-2.4852814 0-4.5 2.014719-4.5 4.5s2.0147186 4.5 4.5 4.5h11.5v-10c0-2.7614237-2.238576-5-5-5zm1.5 9h8.5v3h-8.5c-.8284271 0-1.5-.671573-1.5-1.5s.6715729-1.5 1.5-1.5z" fill="#555753"/></svg>

<svg xmlns="http://www.w3.org/2000/svg" viewBox="0 0 24 24">
  <path
     style="fill:#555753"
     d="m 7,4 v 3 h 8 c 1.104569,0 2,0.8954305 2,2 v 1 H 8.5 C 6.0147186,10 4,12.014719 4,14.5 4,16.985281 6.0147186,19 8.5,19 H 20 V 9 C 20,6.2385763 17.761424,4 15,4 Z m 1.5,9 H 17 v 3 H 8.5 C 7.6715729,16 7,15.328427 7,14.5 7,13.671573 7.6715729,13 8.5,13 Z"
     />
</svg>
